X: 30
T: Missa La Martinella / Gloria
N: Derived from Mar1009b-Missa_La_Martinella-Gloria.krn
C: Johannes Martini
%%abc-version 2.0
%%abcx-abcm2ps-target-version 5.9.1 (29 Sep 2008)
%%abc-creator hum2abc beta
%%abcx-conversion-date 2019/02/17 07:19:41
%%abc-edited-by Jesse Rodin
%%abc-edited-by Chris Gage 10-16-2014
%%abcx-initial-encoding-date 2014/10/25/
%%humdrum-veritas 991598369
%%humdrum-veritas-data 1824152373
%%linebreak <none>
%%barnumbers 0
L: 1/4
M: 4/2
Q: 1/2=120
%%staves [1 2 3 4]
V: 1 clef=treble
V: 2 clef=treble-8
V: 3 clef=treble-8
V: 4 clef=bass
K: F
[V:1] G8 | 
[V:2] z8 | 
[V:3] z8 | 
[V:4] z8 | 
[V:1] F4G4 | 
[V:2] z8 | 
[V:3] z8 | 
[V:4] z8 | 
[V:1] B8 | 
[V:2] G8 | 
[V:3] z8 | 
[V:4] z8 | 
[V:1] A4G3F/E/ | 
[V:2] F4G4 | 
[V:3] z8 | 
[V:4] z8 | 
[V:1] D4z2A2 | 
[V:2] B4A4 | 
[V:3] z8 | 
[V:4] z8 | 
[V:1] B2d4c2 | 
[V:2] G3F/E/D2F2- | 
[V:3] z8 | 
[V:4] z8 | 
[V:1] A2B2c3B | 
[V:2] F2G2A4 | 
[V:3] z8 | 
[V:4] z8 | 
[V:1] G2B2A3G | 
[V:2] B2d4c2 | 
[V:3] z8 | 
[V:4] z8 | 
[V:1] F2G2E2D2- | 
[V:2] A2B2c2BA | 
[V:3] z8 | 
[V:4] z8 | 
[V:1] D2G4^F2 | 
[V:2] G2B2A4 | 
[V:3] z8 | 
[V:4] z8 | 
[V:1] G2D2EDCB, | 
[V:2] z8 | 
[V:3] z8 | 
[V:4] G,8 | 
[V:1] A,4G,2B,2- | 
[V:2] z8 | 
[V:3] z8 | 
[V:4] F,4G,4 | 
[V:1] B,CD3EF2- | 
[V:2] z8 | 
[V:3] z8 | 
[V:4] B,8 | 
[V:1] FEC2E2D2- | 
[V:2] z8 | 
[V:3] z8 | 
[V:4] A,4G,3F, | 
[V:1] DCA,2G,2D2- | 
[V:2] z8 | 
[V:3] z8 | 
[V:4] D,2F,2G,2B,2- | 
[V:1] DEFGABc2 | 
[V:2] z8 | 
[V:3] z8 | 
[V:4] B,2A,G,F,2A,2 | 
[V:1] G2B2AGG2- | 
[V:2] z8 | 
[V:3] z8 | 
[V:4] B,2D3CB,2 | 
[V:1] G2^F2G4 | 
[V:2] z4G4 | 
[V:3] z8 | 
[V:4] A,4z2G,,2 | 
[V:1] z8 | 
[V:2] F3GA2B2 | 
[V:3] z8 | 
[V:4] D,3B,,C,2D,2 | 
[V:1] z8 | 
[V:2] c2A2d2e2- | 
[V:3] z8 | 
[V:4] E,2F,2D,2G,2- | 
[V:1] z8 | 
[V:2] edd4^c2 | 
[V:3] z8 | 
[V:4] G,2F,2E,4 | 
[V:1] F4F2F2 | 
[V:2] d6cB | 
[V:3] D8- | 
[V:4] D,4F,4 | 
[V:1] F3ED4- | 
[V:2] A3GB4- | 
[V:3] D4F4- | 
[V:4] F,2F,2B,,4- | 
[V:1] D4B4 | 
[V:2] B4d4 | 
[V:3] F8 | 
[V:4] B,,2B,,2B,,4 | 
[V:1] B2B2B3A | 
[V:2] B2_e3dcB | 
[V:3] G8- | 
[V:4] _E,8 | 
[V:1] G4F4- | 
[V:2] c3B/c/d4 | 
[V:3] G4A4- | 
[V:4] _E,4D,4- | 
[V:1] F2EDC3B, | 
[V:2] z2D2E2F2 | 
[V:3] A8 | 
[V:4] D,2C,B,,A,,4 | 
[V:1] D8 | 
[V:2] G3ABcd2- | 
[V:3] B8- | 
[V:4] G,,8 | 
[V:1] z2G2A2F2- | 
[V:2] d2B2c2d2- | 
[V:3] B4A4- | 
[V:4] G,4F,2D,2- | 
[V:1] FGA2B2cB- | 
[V:2] d2c2B2AG | 
[V:3] A4G4 | 
[V:4] D,E,F,2G,2E,2 | 
[V:1] BAG2A2G2- | 
[V:2] F2G2F2G2 | 
[V:3] d8 | 
[V:4] D,2G,,2z4 | 
[V:1] G2^F2G4 | 
[V:2] A4G2d2- | 
[V:3] c4B4 | 
[V:4] z4z2G,,2 | 
[V:1] F2G2A3B | 
[V:2] dc/B/cBd2A2- | 
[V:3] A2G2F4 | 
[V:4] D,2_E,2D,2C,B,, | 
[V:1] c4d4 | 
[V:2] AGFEG2B2- | 
[V:3] A4B4 | 
[V:4] A,,4G,,2G,2- | 
[V:1] B4A4- | 
[V:2] Bcdef4- | 
[V:3] d4c4- | 
[V:4] G,A,B,2F,4- | 
[V:1] A2A2A4 | 
[V:2] f4f4 | 
[V:3] c8 | 
[V:4] F,2F,2F,4 | 
[V:1] B4G4- | 
[V:2] d4_e4- | 
[V:3] B8- | 
[V:4] G,4_E,4- | 
[V:1] G4F4- | 
[V:2] e4d3B | 
[V:3] B4z4 | 
[V:4] E,4B,,4- | 
[V:1] F4F4 | 
[V:2] d3cBA3 | 
[V:3] z8 | 
[V:4] B,,2C,2D,4 | 
[V:1] G2D2D3E | 
[V:2] G3DG2FE | 
[V:3] B8 | 
[V:4] G,,2z2G,,2B,,2- | 
[V:1] F2D2E2D2 | 
[V:2] D4z2F2- | 
[V:3] B4A4- | 
[V:4] B,,A,,B,,2C,2D,2- | 
[V:1] A3GA2E2 | 
[V:2] FEF2E2E2- | 
[V:3] A8 | 
[V:4] D,C,D,2A,,2C,2- | 
[V:1] G3FG2D2 | 
[V:2] EDE2D2D2- | 
[V:3] G8 | 
[V:4] C,B,,C,2G,,2B,,2 | 
[V:1] z2C2B,3C | 
[V:2] D2C2D2d2- | 
[V:3] F4G4- | 
[V:4] A,,4G,,3A,, | 
[V:1] D2G3AB2 | 
[V:2] d2c2B2AG | 
[V:3] G8 | 
[V:4] B,,2C,2G,,2G,2 | 
[V:1] A2c3BB2- | 
[V:2] F2A2B2d2 | 
[V:3] z8 | 
[V:4] A,2F,2G,2B,2 | 
[V:1] B2A2B4 | 
[V:2] c4B2z2 | 
[V:3] z8 | 
[V:4] F,4B,,2_E,2- | 
[V:1] z8 | 
[V:2] B3BB2A2- | 
[V:3] z8 | 
[V:4] E,_E,E,2D,3C, | 
[V:1] z8 | 
[V:2] AGG4^F2 | 
[V:3] z8 | 
[V:4] D,2B,,2A,,4 | 
[V:1] B3BB2A2- | 
[V:2] G4z4 | 
[V:3] z8 | 
[V:4] G,,2G,4F,2 | 
[V:1] AGG4^F2 | 
[V:2] z2d4c2 | 
[V:3] z8 | 
[V:4] G,2B,2A,4 | 
[V:1] G4z4 | 
[V:2] B3AG2F2 | 
[V:3] z8 | 
[V:4] G,3F,E,2D,2 | 
[V:1] z8 | 
[V:2] GAB4A2 | 
[V:3] z8 | 
[V:4] C,2B,,2C,4 | 
[V:1] d4c2B2- | 
[V:2] B4c2d2- | 
[V:3] z8 | 
[V:4] B,,4A,,2G,,2 | 
[V:1] BAG2F2B2- | 
[V:2] d2_e2d2B2 | 
[V:3] z8 | 
[V:4] B,,2C,2D,2G,2 | 
[V:1] B2A2B4 | 
[V:2] c4B4- | 
[V:3] z4d4- | 
[V:4] F,4B,,4- | 
[V:1] z2B2AGA2 | 
[V:2] B2f6 | 
[V:3] d4c4 | 
[V:4] B,,4F,4 | 
[V:1] B2G3FF2- | 
[V:2] d2_e3dc2- | 
[V:3] B6A2 | 
[V:4] G,2_E,4F,2 | 
[V:1] F2E2F4 | 
[V:2] cGc2A2B2 | 
[V:3] G4F4 | 
[V:4] C,4D,2B,,2- | 
[V:1] z8 | 
[V:2] F2G3FF2- | 
[V:3] B8 | 
[V:4] B,,2_E,3D,B,,2 | 
[V:1] c4d4 | 
[V:2] F2E2F2DE | 
[V:3] A4B4- | 
[V:4] C,4B,,4- | 
[V:1] B2d2c2A2 | 
[V:2] F2G4^F2 | 
[V:3] B4c4 | 
[V:4] B,,2G,,2A,,4 | 
[V:1] B3A/G/F3E/F/ | 
[V:2] G2B2A3B | 
[V:3] d8 | 
[V:4] G,,4D,4 | 
[V:1] G4B4- | 
[V:2] c4B4 | 
[V:3] _e4d4 | 
[V:4] C,4G,4- | 
[V:1] B4A4- | 
[V:2] d3ef4- | 
[V:3] B4c4- | 
[V:4] G,4F,4- | 
[V:1] A4A4 | 
[V:2] f8 | 
[V:3] c8 | 
[V:4] F,4F,4 | 
[V:1] F4z2F2 | 
[V:2] d8 | 
[V:3] B8- | 
[V:4] B,,2B,,3C,D,2 | 
[V:1] D2F3EDC | 
[V:2] f2d2f3e | 
[V:3] B4z4 | 
[V:4] B,,2D,3E,F,2 | 
[V:1] B,2D2C2F2 | 
[V:2] dcB4A2 | 
[V:3] z8 | 
[V:4] G,2B,2F,4 | 
[V:1] GB2AGFF2- | 
[V:2] B2c4F2 | 
[V:3] z8 | 
[V:4] B,,2G,,2C,2D,2 | 
[V:1] F2E2F3G | 
[V:2] G4z2A2- | 
[V:3] z4F4- | 
[V:4] C,4D,4- | 
[V:1] A2B3GB2 | 
[V:2] A2D4B,2 | 
[V:3] F4G4 | 
[V:4] D,2B,,4G,,2 | 
[V:1] A2F2G2B2 | 
[V:2] C2D4E2 | 
[V:3] F4B4 | 
[V:4] A,,2B,,2G,,4 | 
[V:1] A2c3BAG | 
[V:2] F2A3Bc2 | 
[V:3] c4A4- | 
[V:4] F,,2F,3G,A,2 | 
[V:1] F2A3EF2 | 
[V:2] d4c2d2 | 
[V:3] A8 | 
[V:4] D,4z2D,2 | 
[V:1] G2E3DD2- | 
[V:2] B2c2C2D2 | 
[V:3] G8 | 
[V:4] E,2C,4B,,2 | 
[V:1] D2C2D4 | 
[V:2] E4D2G2- | 
[V:3] G4B4- | 
[V:4] C,3B,,G,,4- | 
[V:1] G4F4 | 
[V:2] GFG2D2d2- | 
[V:3] B4A4 | 
[V:4] G,,4D,4 | 
[V:1] G2D2E2D2- | 
[V:2] d2B2G2B2- | 
[V:3] G8- | 
[V:4] G,,2B,,2C,2G,,2- | 
[V:1] DCB,2A,4- | 
[V:2] Bcd3ef2 | 
[V:3] G4F4- | 
[V:4] G,,A,,B,,C,D,4- | 
[V:1] A,8 ||  
[V:2] d2cBd4 & x4A4 ||  
[V:3] F8 ||  
[V:4] D,8 ||  
[V:1]  [K:F] [K:clef=treble][M:2/1]F8- | 
[V:2]  [K:F] [K:clef=treble-8][M:2/1]D4D4- | 
[V:3]  [K:F] [K:clef=treble-8][M:4/2]z8 :
[V:4]  [K:F] [K:clef=bass][M:2/1]z8 | 
[V:1] F8 | 
[V:2] D2E2F2G2 | 
[V:3] x8 | 
[V:4] z8 | 
[V:1] F8- | 
[V:2] A3Bc2d2- | 
[V:3] z8 :
[V:4] z8 | 
[V:1] F8 | 
[V:2] d2cBA4 | 
[V:3] x8 | 
[V:4] z8 | 
[V:1] G6FE | 
[V:2] G8 | 
[V:3] z8 :
[V:4] G,,4G,,4- | 
[V:1] D8 | 
[V:2] B8- | 
[V:3] x8 | 
[V:4] G,,2A,,2B,,2C,2 | 
[V:1] z4D4 | 
[V:2] B8 | 
[V:3] z8 :
[V:4] D,3E,F,2G,2- | 
[V:1] D8 | 
[V:2] B8 | 
[V:3] x8 | 
[V:4] G,2F,E,D,4 | 
[V:1] _E8 | 
[V:2] c8 | 
[V:3] z8 :
[V:4] C,6B,,2 | 
[V:1] D6CB, | 
[V:2] B6AG | 
[V:3] x8 | 
[V:4] G,,8 | 
[V:1] A,4D4- | 
[V:2] F3GA2B2- | 
[V:3] D8- :
[V:4] z8 | 
[V:1] D2E2F2G2 | 
[V:2] B2AGAGFE | 
[V:3] D8 | 
[V:4] z8 | 
[V:1] A3Bc2d2- | 
[V:2] D2d3ef2 | 
[V:3] F8- :
[V:4] z8 | 
[V:1] d2cBA4 | 
[V:2] d2f3edc | 
[V:3] F8 | 
[V:4] D,8 | 
[V:1] G4G4- | 
[V:2] B6_e2- | 
[V:3] G8- :
[V:4] _E,8- | 
[V:1] G2G2G4 | 
[V:2] e2d2B2c2 | 
[V:3] G8 | 
[V:4] E,4_E,4 | 
[V:1] F4F4 | 
[V:2] d4D4 | 
[V:3] A8- :
[V:4] D,4D,4 | 
[V:1] E4E4 | 
[V:2] E4E4 | 
[V:3] A8 | 
[V:4] C,4C,4 | 
[V:1] D8- | 
[V:2] F8- | 
[V:3] B8- :
[V:4] B,,8- | 
[V:1] D8 | 
[V:2] F8 | 
[V:3] B8 | 
[V:4] B,,8 | 
[V:1] C8- | 
[V:2] F8- | 
[V:3] A8- :
[V:4] F,,8- | 
[V:1] C4C4 | 
[V:2] F4F4 | 
[V:3] A8 | 
[V:4] F,,4F,,4 | 
[V:1] B,8 | 
[V:2] D8 | 
[V:3] G8 :
[V:4] G,,8 | 
[V:1] F6F2 | 
[V:2] z4B4- | 
[V:3] d8- | 
[V:4] B,,8- | 
[V:1] F4B4- | 
[V:2] B4f4- | 
[V:3] d8 :
[V:4] B,,8 | 
[V:1] B2AGA4 | 
[V:2] f8 | 
[V:3] c8 | 
[V:4] F,8 | 
[V:1] B4z4 | 
[V:2] d4e4 | 
[V:3] B8 :
[V:4] G,8 | 
[V:1] F4G3A | 
[V:2] f2d4^c2 | 
[V:3] A4G4 | 
[V:4] D,4E,4 | 
[V:1] B4A4- | 
[V:2] d8 | 
[V:3] F8 :
[V:4] D,8- | 
[V:1] A2GFE4 | 
[V:2] D4E4 | 
[V:3] A8 | 
[V:4] D,4C,4 | 
[V:1] D4B,2D2- | 
[V:2] F4G4- | 
[V:3] B8 :
[V:4] B,,4G,,4- | 
[V:1] D2C2B,3A, | 
[V:2] G2F2D4 | 
[V:3] d8 | 
[V:4] G,,2A,,2B,,4 | 
[V:1] G,2G2A2c2- | 
[V:2] E4F2A2- | 
[V:3] c8- :
[V:4] C,4F,,3G,, | 
[V:1] cBAGA4 | 
[V:2] AG^FE^F4 | 
[V:3] c8 | 
[V:4] A,,2B,,2A,,4 | 
[V:1] D8- | 
[V:2] G8- | 
[V:3] B8- :
[V:4] G,,8- | 
[V:1] D8 | 
[V:2] G8 | 
[V:3] B8 | 
[V:4] G,,8 | 
[V:1] z8 | 
[V:2] d6cB | 
[V:3] z8 :
[V:4] G,8 | 
[V:1] z8 | 
[V:2] c3de2f2- | 
[V:3] x8 | 
[V:4] A,8- | 
[V:1] z8 | 
[V:2] f2edc2f2- | 
[V:3] z8 :
[V:4] A,8 | 
[V:1] z8 | 
[V:2] fed2c2d2- | 
[V:3] x8 | 
[V:4] B,4A,2B,2- | 
[V:1] z8 | 
[V:2] d2cBA4 | 
[V:3] z8 :
[V:4] B,2A,G,^F,3E, | 
[V:1] G8 | 
[V:2] G4B4 | 
[V:3] x8 | 
[V:4] G,6F,E, | 
[V:1] A8- | 
[V:2] A3GFEF2 | 
[V:3] z8 :
[V:4] F,3E,D,C,D,2- | 
[V:1] A8 | 
[V:2] D2G4^F2 | 
[V:3] x8 | 
[V:4] D,2C,B,,A,,4 | 
[V:1] B4A2B2- | 
[V:2] G4z4 | 
[V:3] z8 :
[V:4] G,,2G,2F,2G,2- | 
[V:1] B2AGF4 | 
[V:2] d8 | 
[V:3] x8 | 
[V:4] G,2F,E,D,4 | 
[V:1] G4z2c2- | 
[V:2] e8- | 
[V:3] z8 :
[V:4] C,8- | 
[V:1] c2BAG3F | 
[V:2] e8 | 
[V:3] x8 | 
[V:4] C,8 | 
[V:1] A4G2A2- | 
[V:2] f4e2f2- | 
[V:3] z8 :
[V:4] z8 | 
[V:1] A2GFE4 | 
[V:2] f2ed^c3=B | 
[V:3] x8 | 
[V:4] z8 | 
[V:1] D4G4- | 
[V:2] d8 | 
[V:3] B8- :
[V:4] G,8 | 
[V:1] G2G2G4 | 
[V:2] _e6_e2 | 
[V:3] B8 | 
[V:4] _E,6E,2 | 
[V:1] G4G4 | 
[V:2] _e4_e4 | 
[V:3] B8 :
[V:4] _E,4E,4 | 
[V:1] A4F4- | 
[V:2] c4d4- | 
[V:3] A8- | 
[V:4] F,4D,4- | 
[V:1] F2F2F4 | 
[V:2] d2d2d4 | 
[V:3] A8 :
[V:4] D,2D,2D,4 | 
[V:1] G4G4 | 
[V:2] B4B4 | 
[V:3] G8- | 
[V:4] _E,4E,4 | 
[V:1] E8 | 
[V:2] c8 | 
[V:3] G8 :
[V:4] C,8 | 
[V:1] z4A4 | 
[V:2] A8 | 
[V:3] F8 | 
[V:4] D,8 | 
[V:1] B4G4- | 
[V:2] d8- | 
[V:3] G8- :
[V:4] G,,8 | 
[V:1] G2A2B4 | 
[V:2] d8 | 
[V:3] G8 | 
[V:4] z4G,4 | 
[V:1] A4F2E2- | 
[V:2] z4A4- | 
[V:3] z8 :
[V:4] F,2D,4C,2 | 
[V:1] E2A4G2 | 
[V:2] A4B4 | 
[V:3] x8 | 
[V:4] E,2F,2G,4 | 
[V:1] A4z4 | 
[V:2] A4F2E2- | 
[V:3] z8 :
[V:4] F,2D,4C,2 | 
[V:1] z8 | 
[V:2] E2A4G2 | 
[V:3] x8 | 
[V:4] A,,2C,2B,,4 | 
[V:1] A3Bc3B | 
[V:2] A4z4 | 
[V:3] z8 :
[V:4] A,,2A,3B,C2- | 
[V:1] AGG4^F2 | 
[V:2] z8 | 
[V:3] x8 | 
[V:4] CB,A,G,A,4 | 
[V:1] G2E2D2F2- | 
[V:2] z8 | 
[V:3] z8 :
[V:4] G,4B,2A,2- | 
[V:1] FED4^C2 | 
[V:2] z8 | 
[V:3] x8 | 
[V:4] A,2G,F,E,4 | 
[V:1] D8- | 
[V:2] z8 | 
[V:3] [M:2/1]z8 | 
[V:4] D,2F,2G,2F,2 | 
[V:1] D8- | 
[V:2] z4D4 | 
[V:3] z8 | 
[V:4] B,2A,G,A,G,F,E, | 
[V:1] D8 | 
[V:2] F3EF2G2 | 
[V:3] z4D4 | 
[V:4] D,2B,,3A,,G,,2 | 
[V:1] z8 | 
[V:2] B2A3GG2- | 
[V:3] F4G4 | 
[V:4] D,4C,2B,,2 | 
[V:1] z4d4- | 
[V:2] G2^F2G4 | 
[V:3] A4B4 | 
[V:4] A,,4G,,2G,2- | 
[V:1] d2c2B4 | 
[V:2] z8 | 
[V:3] A4G2d2- | 
[V:4] G,E,F,2G,2B,2 | 
[V:1] A4G4 | 
[V:2] z4d4- | 
[V:3] d2c2B2AG | 
[V:4] F,4z4 | 
[V:1] A2c2d2B2 | 
[V:2] d2c2B4 | 
[V:3] F2A2B2d2 | 
[V:4] z4z2G,2- | 
[V:1] c4z4 | 
[V:2] A4G4 | 
[V:3] c4B4 | 
[V:4] G,2F,2G,2E,2 | 
[V:1] z4z2G2 | 
[V:2] A2c4B2 | 
[V:3] z8 | 
[V:4] F,2C,2G,4 | 
[V:1] G3ABAGF | 
[V:2] c2G2G3A | 
[V:3] z8 | 
[V:4] C,4z2G,,2 | 
[V:1] G4D4- | 
[V:2] BAGFG4 | 
[V:3] z8 | 
[V:4] G,,3A,,B,,A,,G,,F,, | 
[V:1] D8 | 
[V:2] D2F2G3F | 
[V:3] z4B4 | 
[V:4] G,,2D,2G,,4- | 
[V:1] z8 | 
[V:2] D2C2D2E2 | 
[V:3] B2A4G2- | 
[V:4] G,,2A,,2B,,2C,2 | 
[V:1] z4B4- | 
[V:2] C4D4- | 
[V:3] G2^F2G4 | 
[V:4] A,,4G,,3A,, | 
[V:1] B2A4G2- | 
[V:2] D8- | 
[V:3] z8 | 
[V:4] B,,C,D,E,F,2G,2 | 
[V:1] G2^F2G4 | 
[V:2] D4d4- | 
[V:3] z8 | 
[V:4] A,4G,4 | 
[V:1] A2B2G2B2 | 
[V:2] d4z2G2 | 
[V:3] [M:3/1]z8 | 
[V:4] D,4z4 | 
[V:1] c2d2B4 | 
[V:2] A2B2G2B2 | 
[V:3] z8 | 
[V:4] z8 | 
[V:1] A2A4G2 | 
[V:2] c2d2B4 | 
[V:3] z8 | 
[V:4] z8 | 
[V:1] [M:3/1]A12 | 
[V:2] [M:3/1]A4d4c4 | 
[V:3] z12 | 
[V:4] [M:3/1]D,4F,6E,2 | 
[V:1] z12 | 
[V:2] B6G2A4 | 
[V:3] z12 | 
[V:4] D,4C,8 | 
[V:1] d8c4 | 
[V:2] B4f6e2 | 
[V:3] z12 | 
[V:4] B,,8z4 | 
[V:1] B6G2A4 | 
[V:2] d4c8 | 
[V:3] z12 | 
[V:4] G,8F,4 | 
[V:1] B8z4 | 
[V:2] B6AGF4 | 
[V:3] z12 | 
[V:4] G,4B,4A,4 | 
[V:1] z12 | 
[V:2] G4B4A4 | 
[V:3] z12 | 
[V:4] G,6E,2F,4 | 
[V:1] z12 | 
[V:2] G4A6G2 | 
[V:3] z12 | 
[V:4] E,4C,4D,4 | 
[V:1] z12 | 
[V:2] G8^F4 | 
[V:3] z12 | 
[V:4] B,,4A,,8 | 
[V:1] B6AGF4 | 
[V:2] G8z4 | 
[V:3] z12 | 
[V:4] G,,8D,4 | 
[V:1] G4B4A4 | 
[V:2] G8F4 | 
[V:3] z12 | 
[V:4] E,4D,8 | 
[V:1] G4d6c2 | 
[V:2] G4B4A4 | 
[V:3] z12 | 
[V:4] G,8F,4 | 
[V:1] B2A2B4A3G | 
[V:2] G4d4c4 | 
[V:3] z12 | 
[V:4] G,6D,2F,4 | 
[V:1] G6^FEF4 | 
[V:2] B4A8 | 
[V:3] z12 | 
[V:4] G,4D,8 | 
[V:1] G8z4 | 
[V:2] G8z4 | 
[V:3] z12 | 
[V:4] G,,8z4 | 
[V:1] [M:2/1]!fermata!G8 | 
[V:2] [M:2/1]!fermata!d8 | 
[V:3] [M:2/1]!fermata!B8 :
[V:4] [M:2/1]!fermata!G,8 | 
[V:1] !fermata!A8 | 
[V:2] !fermata!f8 | 
[V:3] !fermata!c8 | 
[V:4] !fermata!F,8 | 
[V:1] !fermata!G8 | 
[V:2] !fermata!d8 | 
[V:3] !fermata!B8 :
[V:4] !fermata!G,8 | 
[V:1] !fermata!F8 | 
[V:2] !fermata!d8 | 
[V:3] !fermata!A8 | 
[V:4] !fermata!D,8 | 
[V:1] !fermata!G8 | 
[V:2] !fermata!c8 | 
[V:3] !fermata!G8 :
[V:4] !fermata!E,8 | 
[V:1] !fermata!F8 ||  
[V:2] !fermata!d8 ||  
[V:3] !fermata!A8 ||  
[V:4] !fermata!D,8 ||  
[V:1]  [K:F] [K:clef=treble][M:4/2]F6G2 | 
[V:2]  [K:F] [K:clef=treble-8][M:4/2]d8 | 
[V:3]  [K:F] [K:clef=treble-8][M:4/2]z8 | 
[V:4]  [K:F] [K:clef=bass][M:4/2]D,6E,2 | 
[V:1] A4D2G2- | 
[V:2] c4B4- | 
[V:3] z8 | 
[V:4] F,4G,4 | 
[V:1] G2F2G2B2 | 
[V:2] B2A2G4 | 
[V:3] z8 | 
[V:4] D,4D4- | 
[V:1] A2F2G2A2 | 
[V:2] F2B4A2 | 
[V:3] z8 | 
[V:4] D4C4 | 
[V:1] D4z4 | 
[V:2] B2G3EF2 | 
[V:3] z8 | 
[V:4] B,6A,2 | 
[V:1] d8 | 
[V:2] G2FED2d2 | 
[V:3] z8 | 
[V:4] G,4F,2B,2- | 
[V:1] c4B4- | 
[V:2] e2f2d2e2- | 
[V:3] z8 | 
[V:4] B,2A,2B,2G,2- | 
[V:1] B2A2G4 | 
[V:2] edd4^c2 | 
[V:3] z8 | 
[V:4] G,2F,2E,4 | 
[V:1] F3GA2B2- | 
[V:2] d3ef4- | 
[V:3] d8 | 
[V:4] D,6B,,2 | 
[V:1] B2A2B2G2- | 
[V:2] f4d2_e2- | 
[V:3] c4B4- | 
[V:4] F,4G,2_E,2- | 
[V:1] GFF4E2 | 
[V:2] edc3Gc2 | 
[V:3] B2A2G4 | 
[V:4] E,2F,2C,4 | 
[V:1] F2D3EF2 | 
[V:2] A2B2F4 | 
[V:3] F4B4- | 
[V:4] D,2B,,3C,D,2 | 
[V:1] G2D2E4 | 
[V:2] z2F4E2 | 
[V:3] B4A4 | 
[V:4] _E,2B,,2C,4 | 
[V:1] D4z2D2 | 
[V:2] F2G4F2 | 
[V:3] B8 | 
[V:4] B,,2G,,A,,B,,C,D,2 | 
[V:1] E2G2F3G | 
[V:2] E4D2D2- | 
[V:3] c4d4- | 
[V:4] C,2G,2A,2F,2- | 
[V:1] A2B2c2G2- | 
[V:2] DEF2G4 | 
[V:3] d4e4 | 
[V:4] F,E,D,2C,4 | 
[V:1] G2F2G2B2- | 
[V:2] D6E2 | 
[V:3] d4B4 | 
[V:4] B,,4G,,4 | 
[V:1] B2A2A3G | 
[V:2] F4z2f2- | 
[V:3] c8 | 
[V:4] F,,8 | 
[V:1] B3AF2D2 | 
[V:2] f2d3cB2 | 
[V:3] B8 | 
[V:4] B,,8 | 
[V:1] E2F2G2D2 | 
[V:2] c2A2G2A2 | 
[V:3] z8 | 
[V:4] z2D,2E,2F,2 | 
[V:1] E2D4^C2 | 
[V:2] B2A4G2 | 
[V:3] z8 | 
[V:4] G,2D,2E,4 | 
[V:1] D6C2 | 
[V:2] A2D2B,2C2 | 
[V:3] F8 | 
[V:4] D,2B,,4A,,2 | 
[V:1] B,2D3CF2- | 
[V:2] D4d4- | 
[V:3] G4F4 | 
[V:4] G,,2B,,3A,,D,2- | 
[V:1] FDG3EA2- | 
[V:2] d2B2_e2c2- | 
[V:3] B4c4 | 
[V:4] D,B,,_E,3C,F,2- | 
[V:1] AG^FEF4 | 
[V:2] c2d3Ad2 | 
[V:3] A8 | 
[V:4] F,E,D,C,D,4 | 
[V:1] G6F2 | 
[V:2] B2G2B4 | 
[V:3] G8 | 
[V:4] _E,6D,2 | 
[V:1] E4F2G2 | 
[V:2] c4d4 | 
[V:3] G4B4- | 
[V:4] C,4B,,2G,,2 | 
[V:1] D3EFGAB | 
[V:2] z2d4c2 | 
[V:3] B4A4 | 
[V:4] G,3F,D,2F,2 | 
[V:1] c2BAGABc | 
[V:2] e2dcBcde | 
[V:3] G8 | 
[V:4] C,2D,2_E,3D, | 
[V:1] d2B4AG | 
[V:2] f2d3Bc2 | 
[V:3] F6G2 | 
[V:4] B,,3C,D,2_E,2 | 
[V:1] !fermata!^F8 | 
[V:2] !fermata!d8 | 
[V:3] !fermata!A8 | 
[V:4] !fermata!D,8 | 
[V:1] G8 |]  
[V:2] d8 |]  
[V:3] G8 |]  
[V:4] G,,8 |]  



